sharp/svg/format_indent_increase.svg

<svg xmlns="http://www.w3.org/2000/svg" width="24" height="24"><g fill="currentColor"><path d="M3 21h18v-2H3v2zM3 8v8l4-4-4-4zm8 9h10v-2H11v2zM3 3v2h18V3H3zm8 6h10V7H11v2zm0 4h10v-2H11v2z"/></g></svg>

<?xml version="1.0" encoding="utf-8"?>
<!-- Generator: Adobe Illustrator 19.1.0, SVG Export Plug-In . SVG Version: 6.00 Build 0)  -->
<svg version="1.1" xmlns="http://www.w3.org/2000/svg" xmlns:xlink="http://www.w3.org/1999/xlink" x="0px" y="0px" width="24px"
	 height="24px" viewBox="0 0 24 24" enable-background="new 0 0 24 24" xml:space="preserve">
<g id="Bounding_Boxes" display="none">
	<g id="ui_x5F_spec_x5F_header_copy_3" display="inline">
	</g>
	<path display="inline" fill="none" d="M0,0h24v24H0V0z"/>
</g>
<g id="Sharp" fill="currentColor">
	<g id="ui_x5F_spec_x5F_header_copy_4">
	</g>
	<path d="M3,21h18v-2H3V21z M3,8v8l4-4L3,8z M11,17h10v-2H11V17z M3,3v2h18V3H3z M11,9h10V7H11V9z M11,13h10v-2H11V13z"/>
</g>
</svg>
